X:81
T:Passo Del Prat
R:Grande
M:6/4
L:1/4
N:Trs large
N:La Bourre 4th edition 1929, page 81
Z:Steve Mansfield www.lesession.co.uk June 2012
K:A
A B c e2 d | c B2 - !fermata! B3 | 
A B c d3 | c B2 - !fermata! B3 | A B c e2 d | 
c B2 - !fermata! B3 | A B c d3 - | d (c/<B/) - B !fermata! A3 |]

